image/Vector.svg

<svg width="50" height="50" viewBox="0 0 50 50" fill="none" xmlns="http://www.w3.org/2000/svg">
<path fill-rule="evenodd" clip-rule="evenodd" d="M24.9995 0C11.1961 0 0.00183105 11.4761 0.00183105 25.6336C0.00183105 36.9569 7.16443 46.5651 17.0987 49.9564C18.3495 50.1907 18.8053 49.399 18.8053 48.7194C18.8053 48.1104 18.7838 46.4992 18.7715 44.3607C11.8177 45.9091 10.3505 40.924 10.3505 40.924C9.21326 37.9626 7.5742 37.1739 7.5742 37.1739C5.30432 35.5847 7.74608 35.6163 7.74608 35.6163C10.2554 35.7971 11.5752 38.2582 11.5752 38.2582C13.8052 42.1748 17.4272 41.0435 18.8514 40.3875C19.0785 38.7319 19.7246 37.6022 20.4383 36.9615C14.8872 36.3132 9.05059 34.1151 9.05059 24.2929C9.05059 21.4935 10.0251 19.2071 11.6243 17.4148C11.3665 16.7665 10.5086 14.1606 11.8699 10.6311C11.8699 10.6311 13.9678 9.94184 18.7439 13.2573C20.7375 12.6893 22.877 12.406 25.0026 12.395C27.1266 12.406 29.2645 12.6893 31.2612 13.2573C36.0342 9.94184 38.1289 10.6311 38.1289 10.6311C39.4936 14.1606 38.6357 16.7665 38.3793 17.4148C39.9816 19.2071 40.9485 21.4935 40.9485 24.2929C40.9485 34.1403 35.1026 36.307 29.5346 36.9411C30.4309 37.7328 31.2305 39.297 31.2305 41.6888C31.2305 45.1143 31.1998 47.8791 31.1998 48.7194C31.1998 49.4055 31.651 50.2034 32.9187 49.9529C42.8455 46.5559 50.0018 36.9554 50.0018 25.6336C50.0018 11.4761 38.8075 0 24.9995 0Z" fill="#BB2A2F"/>
</svg>

<svg xmlns="http://www.w3.org/2000/svg" width="50" height="50" fill="none"><path fill="#BB2A2F" fill-rule="evenodd" d="M25 0C11.196 0 .002 11.476.002 25.634c0 11.323 7.162 20.931 17.097 24.322 1.25.235 1.706-.557 1.706-1.237 0-.609-.021-2.22-.034-4.358-6.953 1.548-8.42-3.437-8.42-3.437-1.138-2.961-2.777-3.75-2.777-3.75-2.27-1.59.172-1.558.172-1.558 2.51.181 3.83 2.642 3.83 2.642 2.23 3.917 5.851 2.785 7.275 2.13.227-1.656.874-2.786 1.587-3.426-5.55-.649-11.387-2.847-11.387-12.67 0-2.799.974-5.085 2.573-6.877-.258-.648-1.115-3.254.246-6.784 0 0 2.098-.69 6.874 2.626 1.994-.568 4.133-.851 6.259-.862 2.124.011 4.262.294 6.258.862 4.773-3.315 6.868-2.626 6.868-2.626 1.365 3.53.507 6.136.25 6.784 1.603 1.792 2.57 4.079 2.57 6.878 0 9.847-5.846 12.014-11.414 12.648.896.792 1.695 2.356 1.695 4.748 0 3.425-.03 6.19-.03 7.03 0 .687.451 1.484 1.719 1.234 9.927-3.397 17.083-12.998 17.083-24.32C50.002 11.477 38.807 0 24.999 0Z" clip-rule="evenodd"/></svg>
